src/static/svg/character-heart-hover.svg

<?xml version="1.0" encoding="UTF-8"?>
<svg width="322px" height="500px" viewBox="0 0 322 500" version="1.1" xmlns="http://www.w3.org/2000/svg" xmlns:xlink="http://www.w3.org/1999/xlink">
    <title>character-heart-hover</title>
    <defs>
        <polygon id="path-1" points="0 0.568135294 321.532137 0.568135294 321.532137 279.408076 0 279.408076"></polygon>
    </defs>
    <g id="R4" stroke="none" stroke-width="1" fill="none" fill-rule="evenodd">
        <g id="D---Homepage---Hover-Full-Layout---1440" transform="translate(-80.000000, -5843.000000)">
            <g id="Characters" transform="translate(-593.000000, 5044.000000)">
                <g id="character-heart-hover" transform="translate(673.000000, 799.000000)">
                    <path d="M123.797521,463.769252 C123.683599,464.097093 123.539841,464.368036 123.368959,464.571243 C121.657423,466.58435 116.552654,466.129166 114.141315,466.974508 C106.790664,469.551177 100.752823,476.574022 101.00779,484.591228 C101.181385,490.023637 104.192168,495.174265 109.237264,497.43393 C116.414321,500.650025 126.013566,500.273414 133.662583,499.346789 C139.610914,498.62879 145.776239,496.978746 150.032022,492.762872 C152.907184,489.91526 154.266105,485.734608 153.95689,481.735488 C153.588001,476.923539 149.961499,474.189723 148.803297,469.759803 C147.927186,466.410947 147.932611,462.864302 147.940748,459.426034 C147.962447,450.11101 147.986859,440.795987 148.008558,431.480964 C148.008558,425.655687 139.488855,422.274317 134.427485,422.019631 C132.083956,421.903125 129.748565,422.325797 127.44301,422.743049 C125.525331,423.092566 123.683599,423.74012 121.871704,424.393092 C122.029025,433.523875 123.640201,442.689879 123.74056,451.896525 C123.767684,454.164319 124.771279,460.975828 123.797521,463.769252" id="Fill-1" fill="#AC0015"></path>
                    <path d="M198.204803,463.769252 C198.318726,464.097093 198.459773,464.368036 198.633369,464.571243 C200.344921,466.58435 205.447029,466.129166 207.861104,466.974508 C215.211828,469.551177 221.249729,476.574022 220.992046,484.591228 C220.821162,490.023637 217.810349,495.174265 212.765203,497.43393 C205.585364,500.650025 195.988736,500.273414 188.339644,499.346789 C182.388541,498.62879 176.225868,496.978746 171.970043,492.762872 C169.094852,489.91526 167.735918,485.734608 168.042424,481.735488 C168.414029,476.923539 172.037854,474.189723 173.196068,469.759803 C174.0749,466.410947 174.069475,462.864302 174.061337,459.426034 C174.036925,450.11101 174.015226,440.795987 173.990814,431.480964 C173.990814,425.655687 182.513313,422.274317 187.574734,422.019631 C189.918286,421.903125 192.250988,422.325797 194.559278,422.743049 C196.474264,423.092566 198.316013,423.74012 200.127926,424.393092 C199.970604,433.523875 198.359412,442.689879 198.259052,451.896525 C198.23464,454.164319 197.231036,460.975828 198.204803,463.769252" id="Fill-3" fill="#AC0015"></path>
                    <path d="M228.480914,365.938399 C225.426717,342.652557 222.262558,319.377727 218.999433,296.116663 C217.366497,284.484755 215.708818,272.858352 214.0209,261.23195 C213.20993,255.634868 214.512981,239.485099 209.792858,235.936334 C206.738662,233.637484 202.518867,233.334641 198.584974,233.130911 C185.812878,232.464657 173.040783,231.798403 160.268687,231.132149 L160.268687,231 C159.845333,231.022025 159.421979,231.04405 159.001375,231.066075 C158.575271,231.04405 158.154667,231.022025 157.731313,231 L157.731313,231.132149 C144.959217,231.798403 132.187122,232.464657 119.415026,233.130911 C115.483882,233.334641 111.258589,233.637484 108.207142,235.936334 C103.487019,239.485099 104.79007,255.634868 103.9791,261.23195 C102.291182,272.858352 100.633503,284.484755 99.0005666,296.116663 C95.7346929,319.377727 92.5732831,342.652557 89.5190864,365.938399 C87.5040313,381.295272 85.9315736,398.237938 95.5367611,410.907771 C106.241569,425.028495 126.884201,428.723174 145.47329,430.24014 C149.5034,430.570514 153.610484,430.818294 157.731313,430.936678 L157.731313,431 C158.154667,430.994494 158.575271,430.980728 159.001375,430.969716 C159.421979,430.980728 159.845333,430.994494 160.268687,431 L160.268687,430.936678 C164.389516,430.818294 168.4966,430.570514 172.52671,430.24014 C191.11305,428.723174 211.758431,425.028495 222.463239,410.907771 C232.068426,398.237938 230.495969,381.295272 228.480914,365.938399" id="Fill-5" fill="#AC0015"></path>
                    <path d="M158.802524,361.961744 C143.696074,361.040868 127.796132,358.373881 120.126619,355.471892 L119.61769,355.280613 C111.463873,352.201007 92.3680724,344.989757 95.3039936,326.774451 L112.279255,221.428446 C112.949619,216.239297 115.669382,211.323406 119.902252,207.872171 C123.612512,204.849949 128.264018,203.188547 133.005818,203.188547 C133.854034,203.188547 134.699514,203.243199 135.534049,203.344304 C135.895225,203.347036 137.123769,203.347036 137.293413,203.347036 C141.35664,203.347036 148.569211,203.243199 158.156785,203.040989 C158.490599,203.021861 159.368913,203 159.453735,203 C159.524876,203 160.5099,203.021861 160.838242,203.040989 C170.431289,203.243199 177.64386,203.347036 181.707087,203.347036 C181.87673,203.347036 183.102539,203.347036 183.463715,203.344304 C184.295513,203.243199 185.146465,203.188547 185.991945,203.188547 C190.736481,203.188547 195.387987,204.849949 199.090039,207.863973 C203.328382,211.326138 206.053617,216.244763 206.756815,221.712633 C206.756815,221.712633 223.69377,326.763521 223.696506,326.774451 C226.629691,344.989757 207.536627,352.201007 199.380074,355.280613 L198.873881,355.471892 C191.291926,358.338357 175.679283,360.978019 160.737003,361.928953 C160.375827,361.975407 160.006443,362 159.637059,362 C159.445526,362 158.873665,361.967209 158.802524,361.961744" id="Fill-7" fill="#D6002A"></path>
                    <path d="M204.283777,258.411486 C214.687291,283.72244 217.990868,310.166803 216.063781,337.379672 C214.58543,358.253745 246.96599,358.159755 248.436081,337.379672 C250.542111,307.66501 246.861376,277.405759 235.499825,249.769935 C227.659336,230.703787 196.324909,239.060604 204.283777,258.411486" id="Fill-9" fill="#D6002A"></path>
                    <path d="M218.061189,363.494104 C219.031355,363.343772 220.020868,364.114916 220.463109,365.069797 C221.317186,366.91553 220.471401,368.939433 221.433274,370.754543 C226.519042,380.378523 240.656922,379.429209 247.533765,373.638675 C251.920239,369.944425 254.570919,364.298654 255.563197,358.432954 C257.240947,348.538934 253.780414,338.388795 250.369633,329.201889 C250.209321,328.762032 250.007548,328.283199 249.598476,328.088325 C249.228099,327.912939 248.805207,328.032647 248.42101,328.155139 C238.409787,331.398395 228.332228,332.54815 217.889821,333.825965 C217.696341,333.851021 217.491804,333.876076 217.33702,333.998568 C217.165652,334.13498 217.085496,334.36326 217.013632,334.577621 C214.495624,342.225025 212.317589,348.892491 212.02184,357.124515 C211.963796,358.803214 211.969324,360.568213 212.721133,362.071525 C213.475706,363.574837 215.225321,364.68005 216.704063,364.081509 C217.110372,363.920042 217.469692,363.641651 217.892585,363.52751 C217.947865,363.513591 218.003145,363.502455 218.061189,363.494104" id="Fill-11" fill="#EE847D"></path>
                    <path d="M85.5024306,249.773308 C74.1402737,277.405177 70.4593423,307.668652 72.5627317,337.379268 C74.0329017,358.125284 106.41794,358.288377 104.936757,337.379268 C103.009568,310.162044 106.316074,283.718821 116.720142,258.414487 C124.662915,239.09761 93.35435,230.677575 85.5024306,249.773308" id="Fill-13" fill="#D6002A"></path>
                    <path d="M103.941077,363.494104 C102.97088,363.343772 101.981334,364.114916 101.539079,365.069797 C100.682209,366.91553 101.530786,368.939433 100.568881,370.754543 C95.4801825,380.378523 81.3418365,379.429209 74.4675322,373.638675 C70.0809135,369.944425 67.4301464,364.298654 66.4378362,358.432954 C64.7572665,348.538934 68.2206775,338.388795 71.6288067,329.201889 C71.7918883,328.762032 71.9909031,328.283199 72.4027533,328.088325 C72.773142,327.912939 73.1960485,328.032647 73.5774937,328.155139 C83.5918099,331.398395 93.6669362,332.54815 104.112451,333.825965 C104.305938,333.851021 104.507717,333.876076 104.662506,333.998568 C104.83388,334.13498 104.916803,334.36326 104.985905,334.577621 C107.50676,342.225025 109.684867,348.892491 109.977861,357.124515 C110.035907,358.803214 110.033143,360.568213 109.278545,362.071525 C108.523947,363.574837 106.777039,364.68005 105.295484,364.081509 C104.891926,363.920042 104.52983,363.641651 104.109687,363.52751 C104.051641,363.513591 103.999123,363.502455 103.941077,363.494104" id="Fill-15" fill="#EE847D"></path>
                    <g id="Group-19">
                        <mask id="mask-2" fill="white">
                            <use xlink:href="#path-1"></use>
                        </mask>
                        <g id="Clip-18"></g>
                        <path d="M160.924867,279.408076 C160.368935,279.408076 159.810251,279.369371 159.248815,279.291959 C159.246063,279.291959 158.830491,279.239429 158.626832,279.206253 C143.124046,277.091253 129.800952,269.319665 116.387038,260.8569 C66.2541145,229.206547 31.8248838,193.580547 14.059841,154.974194 C4.37231966,133.920959 -0.350347009,111.875194 0.0184393162,89.4506647 C0.722986325,47.0843118 33.2064564,1.26484118 80.4386274,0.576429412 L81.6110376,0.568135294 C98.4265932,0.568135294 115.498097,6.09201765 130.984371,16.5509 C137.129892,20.7034882 143.300183,25.6910176 150.397944,32.2571941 L151.17955,32.9787824 C154.085807,35.6799 158.062644,39.3763118 160.341414,39.3763118 L161.125773,39.3763118 C163.473345,39.3763118 167.450183,35.6743706 170.359191,32.9760176 L171.12979,32.2599588 C178.246815,25.6827235 184.414354,20.6951941 190.548867,16.5509 C206.03514,6.09201765 223.109397,0.568135294 239.9222,0.568135294 L241.097362,0.576429412 C288.329533,1.26484118 320.810251,47.0843118 321.512046,89.4506647 C321.883585,111.872429 317.16367,133.915429 307.476149,154.974194 C289.711106,193.580547 255.281875,229.201018 205.1462,260.8569 C191.960713,269.173135 178.866046,276.823076 163.710029,279.090135 C162.801824,279.300253 161.866097,279.408076 160.924867,279.408076" id="Fill-17" fill="#D6002A" mask="url(#mask-2)"></path>
                    </g>
                    <path d="M159.625241,256 C159.192108,256 158.761734,255.969647 158.325842,255.911701 C158.323083,255.911701 158.003061,255.870311 157.84305,255.842717 C145.839474,254.214703 135.52153,248.221402 125.134616,241.695548 C86.3071448,217.291888 59.646019,189.822593 45.8878408,160.054763 C38.3866404,143.821528 34.7312191,126.823954 35.0153764,109.533889 C35.5588616,76.8687449 60.7136779,41.5380726 97.2927204,41.0055187 L98.2003685,41 C111.221945,41 124.444914,45.260431 136.437455,53.3232414 C141.193641,56.5268427 145.974656,60.3733717 151.470203,65.4340131 L152.077141,65.9914011 C154.325569,68.0747077 157.407159,70.9223533 159.172796,70.9223533 L159.782493,70.9223533 C161.597789,70.9223533 164.679378,68.0719484 166.927807,65.9886418 L167.526468,65.4367725 C173.035809,60.3650936 177.816824,56.521324 182.564734,53.3232414 C194.557274,45.260431 207.780244,41 220.80182,41 L221.712227,41.0055187 C258.288511,41.5380726 283.443327,76.8687449 283.984053,109.533889 C284.273728,126.821194 280.615548,143.818769 273.117107,160.054763 C259.35617,189.822593 232.695044,217.289128 193.870331,241.695548 C183.659981,248.108269 173.515842,254.007752 161.77987,255.754418 C161.076374,255.91722 160.353566,256 159.625241,256" id="Fill-20" fill="#AC0015"></path>
                    <path d="M241.171276,133.26092 C238.2125,116.744663 227.602664,103.724609 215.146684,96.3721397 C199.322589,87.0269454 185.25398,89.3302609 168.79802,94.5690669 C165.93265,95.4815976 163.190906,95.9268686 160.501359,96.1000296 C157.806318,95.9268686 155.067321,95.4815976 152.199204,94.5690669 C135.745992,89.3302609 121.68013,87.0269454 105.85054,96.3721397 C93.3973074,103.724609 82.7874716,116.744663 79.8286956,133.26092 C77.2600274,147.600296 80.869899,162.360206 87.7956877,174.2341 C91.608855,180.772987 97.2132219,186.487299 103.932968,191.176387 C118.333993,201.22522 139.103117,206.453031 160.199163,206.969766 L160.199163,207 C160.300811,206.997251 160.399711,206.986257 160.501359,206.986257 C160.60026,206.986257 160.69916,206.997251 160.800808,207 L160.800808,206.969766 C181.896854,206.453031 202.663231,201.22522 217.067003,191.176387 C223.786749,186.487299 229.393863,180.772987 233.207031,174.2341 C240.130072,162.360206 243.739944,147.600296 241.171276,133.26092" id="Fill-22" fill="#F09488"></path>
                    <path d="M172,153.001378 C172,148.03092 166.403879,144 159.501426,144 C152.596121,144 147,148.03092 147,153.001378 C147,157.971835 152.596121,162 159.501426,162 C166.403879,162 172,157.971835 172,153.001378" id="Fill-24" fill="#D6002A"></path>
                    <path d="M142.234496,178.049446 C151.807997,183.112614 166.117715,183.417205 175.761403,178.335335 C180.882244,175.639432 176.303246,168.166251 171.176791,170.867497 C164.483762,174.391675 153.413875,174.068381 146.821915,170.581608 C141.70669,167.875018 137.116462,175.342856 142.234496,178.049446" id="Fill-30" fill="#160403"></path>
                    <path d="M122.429617,153.000882 C125.161729,147.285017 130.639434,147.711909 133.349077,153.207588 C135.878977,158.330298 143.531586,153.836693 141.010674,148.727464 C135.470059,137.497945 120.295155,136.954219 114.768021,148.520758 C112.319006,153.652455 119.967122,158.155047 122.429617,153.000882" id="Fill-12" fill="#160403"></path>
                    <path d="M207.134522,148.522556 C201.607387,136.951523 186.436977,137.495249 180.891868,148.729261 C178.375449,153.833997 186.023565,158.336589 188.553465,153.204892 C191.267602,147.709213 196.740813,147.286814 199.472925,153.00268 C201.93542,158.152351 209.58803,153.654253 207.134522,148.522556" id="Fill-14" fill="#160403"></path>
                </g>
            </g>
        </g>
    </g>
</svg>

<svg xmlns="http://www.w3.org/2000/svg" xmlns:xlink="http://www.w3.org/1999/xlink" viewBox="0 0 322 500"><defs><path id="a" d="M0 .568h321.532v278.84H0z"/></defs><g fill="none" fill-rule="evenodd"><path fill="#AC0015" d="M123.798 463.77a2.538 2.538 0 0 1-.429.801c-1.712 2.013-6.816 1.558-9.228 2.404-7.35 2.576-13.388 9.599-13.133 17.616.173 5.433 3.184 10.583 8.23 12.843 7.176 3.216 16.776 2.84 24.425 1.913 5.948-.718 12.113-2.368 16.369-6.584 2.875-2.848 4.234-7.028 3.925-11.028-.369-4.811-3.996-7.545-5.154-11.975-.876-3.35-.87-6.896-.862-10.334.021-9.315.046-18.63.068-27.945 0-5.825-8.52-9.207-13.582-9.461-2.343-.117-4.678.306-6.984.723-1.918.35-3.76.997-5.571 1.65.157 9.13 1.768 18.297 1.869 27.504.027 2.267 1.03 9.079.057 11.872M198.205 463.77c.114.327.255.598.428.801 1.712 2.013 6.814 1.558 9.228 2.404 7.35 2.576 13.389 9.599 13.131 17.616-.17 5.433-3.182 10.583-8.227 12.843-7.18 3.216-16.776 2.84-24.425 1.913-5.951-.718-12.114-2.368-16.37-6.584-2.875-2.848-4.234-7.028-3.928-11.028.372-4.811 3.996-7.545 5.154-11.975.879-3.35.873-6.896.865-10.334l-.07-27.945c0-5.825 8.522-9.207 13.584-9.461 2.343-.117 4.676.306 6.984.723 1.915.35 3.757.997 5.569 1.65-.157 9.13-1.769 18.297-1.869 27.504-.024 2.267-1.028 9.079-.054 11.872"/><path fill="#AC0015" d="M228.48 365.938a7867.387 7867.387 0 0 0-14.46-104.706c-.81-5.597.493-21.747-4.227-25.296-3.054-2.299-7.274-2.601-11.208-2.805l-38.316-1.999V231l-1.268.066-1.27-.066v.132l-38.316 1.999c-3.931.204-8.156.506-11.208 2.805-4.72 3.55-3.417 19.699-4.228 25.296a7766.815 7766.815 0 0 0-14.46 104.706c-2.015 15.357-3.587 32.3 6.018 44.97 10.705 14.12 31.347 17.815 49.936 19.332 4.03.33 8.137.578 12.258.697V431c.424-.006.844-.02 1.27-.03.421.01.844.024 1.268.03v-.063c4.12-.119 8.228-.366 12.258-.697 18.586-1.517 39.231-5.212 49.936-19.332 9.605-12.67 8.033-29.613 6.018-44.97"/><path fill="#D6002A" d="M158.803 361.962c-15.107-.921-31.007-3.588-38.676-6.49l-.51-.191c-8.153-3.08-27.249-10.291-24.313-28.507l16.975-105.346c.67-5.189 3.39-10.105 7.623-13.556 3.71-3.022 8.362-4.683 13.104-4.683.848 0 1.694.054 2.528.155.361.003 1.59.003 1.76.003 4.063 0 11.275-.104 20.863-.306a48.84 48.84 0 0 1 1.297-.041c.07 0 1.056.022 1.384.041 9.593.202 16.806.306 20.87.306.169 0 1.395 0 1.756-.003a21.037 21.037 0 0 1 2.528-.155c4.744 0 9.396 1.66 13.098 4.675 4.238 3.462 6.964 8.38 7.667 13.849 0 0 16.937 105.05 16.94 105.061 2.933 18.216-16.16 25.427-24.317 28.507l-.506.19c-7.582 2.867-23.195 5.507-38.137 6.458-.361.046-.73.071-1.1.071-.191 0-.763-.033-.834-.038"/><path fill="#D6002A" d="M204.284 258.411c10.403 25.311 13.707 51.756 11.78 78.969-1.479 20.874 30.902 20.78 32.372 0 2.106-29.715-1.575-59.974-12.936-87.61-7.84-19.066-39.175-10.71-31.216 8.641"/><path fill="#EE847D" d="M218.061 363.494c.97-.15 1.96.62 2.402 1.576.854 1.846.008 3.87.97 5.685 5.086 9.624 19.224 8.674 26.1 2.884 4.387-3.695 7.038-9.34 8.03-15.206 1.678-9.894-1.783-20.044-5.193-29.231-.16-.44-.362-.919-.772-1.114-.37-.175-.793-.055-1.177.067-10.011 3.243-20.089 4.393-30.531 5.671-.194.025-.398.05-.553.173-.171.136-.252.364-.323.579-2.518 7.647-4.696 14.314-4.992 22.547-.058 1.678-.053 3.443.7 4.947.754 1.503 2.503 2.608 3.982 2.01.406-.162.766-.44 1.189-.554.055-.014.11-.026.168-.034"/><path fill="#D6002A" d="M85.502 249.773C74.14 277.405 70.46 307.67 72.562 337.38c1.47 20.746 33.856 20.91 32.375 0-1.927-27.217 1.38-53.66 11.783-78.965 7.943-19.316-23.366-27.736-31.218-8.64"/><path fill="#EE847D" d="M103.941 363.494c-.97-.15-1.96.62-2.402 1.576-.857 1.846-.008 3.87-.97 5.685-5.089 9.624-19.227 8.674-26.101 2.884-4.387-3.695-7.038-9.34-8.03-15.206-1.68-9.894 1.783-20.044 5.19-29.231.164-.44.363-.919.775-1.114.37-.175.793-.055 1.174.067 10.015 3.243 20.09 4.393 30.535 5.671.194.025.396.05.55.173.172.136.255.364.324.579 2.52 7.647 4.699 14.314 4.992 22.547.058 1.678.055 3.443-.7 4.947-.754 1.503-2.501 2.608-3.983 2.01-.403-.162-.765-.44-1.185-.554a1.804 1.804 0 0 0-.169-.034"/><g><mask id="b" fill="#fff"><use xlink:href="#a"/></mask><path fill="#D6002A" d="M160.925 279.408c-.556 0-1.115-.039-1.676-.116-.003 0-.419-.053-.622-.086-15.503-2.115-28.826-9.886-42.24-18.35-50.133-31.65-84.562-67.275-102.327-105.882C4.372 133.921-.35 111.875.018 89.451.723 47.084 33.206 1.265 80.438.576l1.173-.008c16.816 0 33.887 5.524 49.373 15.983 6.146 4.152 12.316 9.14 19.414 15.706l.782.722c2.906 2.7 6.883 6.397 9.161 6.397h.785c2.347 0 6.324-3.702 9.233-6.4l.77-.716c7.118-6.577 13.285-11.565 19.42-15.71C206.035 6.093 223.109.569 239.922.569l1.175.008c47.233.689 79.713 46.508 80.415 88.875.372 22.421-4.348 44.464-14.036 65.523-17.765 38.607-52.194 74.227-102.33 105.883-13.185 8.316-26.28 15.966-41.436 18.233-.908.21-1.844.318-2.785.318" mask="url(#b)"/></g><path fill="#AC0015" d="M159.625 256c-.433 0-.863-.03-1.3-.088-.002 0-.322-.042-.482-.07-12.004-1.627-22.321-7.62-32.708-14.146-38.828-24.404-65.489-51.873-79.247-81.641-7.501-16.233-11.157-33.231-10.873-50.521.544-32.665 25.699-67.996 62.278-68.528L98.2 41c13.022 0 26.245 4.26 38.237 12.323 4.757 3.204 9.538 7.05 15.033 12.111l.607.557c2.249 2.084 5.33 4.931 7.096 4.931h.61c1.815 0 4.896-2.85 7.145-4.933l.598-.552c5.51-5.072 10.29-8.916 15.039-12.114C194.557 45.26 207.78 41 220.802 41l.91.006c36.577.532 61.731 35.863 62.272 68.528.29 17.287-3.368 34.285-10.867 50.52-13.76 29.769-40.422 57.235-79.247 81.642-10.21 6.412-20.354 12.312-32.09 14.058a9.556 9.556 0 0 1-2.155.246"/><path fill="#F09488" d="M241.171 133.26c-2.958-16.515-13.568-29.535-26.024-36.888-15.824-9.345-29.893-7.042-46.349-1.803-2.865.913-5.607 1.358-8.297 1.531-2.695-.173-5.434-.618-8.302-1.53-16.453-5.24-30.519-7.543-46.348 1.802-12.454 7.353-23.064 20.373-26.022 36.889-2.569 14.34 1.04 29.1 7.967 40.973 3.813 6.539 9.417 12.253 16.137 16.942 14.401 10.05 35.17 15.277 56.266 15.794v.03c.102-.003.2-.014.302-.014.1 0 .198.011.3.014v-.03c21.096-.517 41.862-5.745 56.266-15.794 6.72-4.689 12.327-10.403 16.14-16.942 6.923-11.874 10.533-26.634 7.964-40.973"/><path fill="#D6002A" d="M172 153.001c0-4.97-5.596-9.001-12.499-9.001-6.905 0-12.501 4.03-12.501 9.001 0 4.97 5.596 8.999 12.501 8.999 6.903 0 12.499-4.028 12.499-8.999"/><path fill="#160403" d="M142.234 178.05c9.574 5.063 23.884 5.367 33.527.285 5.121-2.696.542-10.169-4.584-7.468-6.693 3.525-17.763 3.201-24.355-.285-5.115-2.707-9.706 4.76-4.588 7.467M122.43 153c2.732-5.715 8.21-5.288 10.92.208 2.529 5.122 10.182.629 7.66-4.48-5.54-11.23-20.715-11.774-26.242-.207-2.449 5.131 5.2 9.634 7.662 4.48M207.135 148.523c-5.528-11.571-20.698-11.028-26.243.206-2.517 5.105 5.132 9.608 7.661 4.476 2.715-5.496 8.188-5.918 10.92-.202 2.462 5.15 10.115.651 7.662-4.48"/></g></svg>
